X:3184
T:Coleman's Cross
T:Kimmel's No.2
M:6/8
L:1/8
Q:200
C:Trad Irish
S:The Bothy Band
R:jig
K:D
B2 e efe|B2 e efe|A2 d dcd|A2 d dcd|!
B2 e efe|B2 e efg|bag agf|1]gee e2 d:|2]gee e2 f||!
gdB GFG|FDF AGF|GBd efg|fdd def|!
gdB GFG|FDF AGF|GBd efg|1]fdd def:|2]fdd d2 A||!


